brandFactory_export/2.Regular/(1)AI_Inteligencia Artificial_2Regular.svg

<?xml version="1.0" encoding="UTF-8"?>
<svg width="24px" height="24px" viewBox="0 0 24 24" version="1.1" xmlns="http://www.w3.org/2000/svg" xmlns:xlink="http://www.w3.org/1999/xlink">
    <title>2.Regular/(1)AI_Inteligencia Artificial_2Regular</title>
    <g id="Symbols" stroke="none" stroke-width="1" fill="none" fill-rule="evenodd">
        <g id="2.Regular/(1)AI_Inteligencia-Artificial_2Regular" fill="#5CB615" fill-rule="nonzero">
            <path d="M17.292437,19.989916 L17.2857143,19.989916 C17.0470588,19.9932773 16.7647059,19.9058824 16.4689076,19.7142857 C16.405042,19.6739496 16.3445378,19.6302521 16.287395,19.5865546 C15.9647059,19.3378151 15.507563,19.3882353 15.2453782,19.7008403 C14.9966387,20.0067227 15.0403361,20.4537815 15.3462185,20.702521 C15.3529412,20.7058824 15.3563025,20.712605 15.3630252,20.7159664 C15.4470588,20.7831933 15.5445378,20.8504202 15.6521008,20.9210084 C15.8369748,21.0386555 16.0218487,21.1294118 16.2033613,21.2067227 C15.8235294,21.8521008 15.1882353,22.1747899 14.2638655,22.1747899 C13.1243697,22.1747899 12.6806723,21.0117647 12.5831933,20.6991597 C12.5865546,20.4336134 12.589916,19.7411765 12.5831933,19.5731092 L12.5831933,18.1815126 L14.0655462,18.1815126 C14.3142857,18.5747899 14.7546218,18.8369748 15.2621849,18.8369748 C16.0420168,18.8369748 16.6739496,18.2184874 16.6739496,17.4554622 C16.6739496,16.692437 16.0386555,16.0739496 15.2621849,16.0739496 C14.7546218,16.0739496 14.3142857,16.3394958 14.0655462,16.7294118 L12.5798319,16.7294118 L12.5798319,9.32436975 L13.6285714,9.32436975 L13.6285714,11.6705882 C13.2756303,11.9226891 13.0403361,12.3294118 13.0403361,12.7865546 C13.0403361,13.5462185 13.6756303,14.1680672 14.4521008,14.1680672 C14.9563025,14.1680672 15.3966387,13.9058824 15.6453782,13.5159664 L18.3411765,13.5092437 L18.3411765,15.0084034 C17.9378151,15.2504202 17.6655462,15.6840336 17.6655462,16.1781513 C17.6655462,16.9378151 18.297479,17.5596639 19.0806723,17.5596639 C19.8571429,17.5596639 20.492437,16.9411765 20.492437,16.1781513 C20.492437,15.687395 20.2235294,15.2571429 19.8235294,15.0117647 L19.8235294,12.7831933 C19.8235294,12.5915966 19.7462185,12.4067227 19.6084034,12.2722689 C19.4672269,12.1378151 19.2789916,12.0605042 19.0840336,12.0605042 L15.6554622,12.0672269 C15.5210084,11.8554622 15.3327731,11.6840336 15.1109244,11.5731092 L15.1109244,9.32436975 L17.7327731,9.32436975 C18.1428571,9.32436975 18.4722689,9.00168067 18.4722689,8.60168067 L18.4722689,6.8302521 C18.8756303,6.58823529 19.1478992,6.15798319 19.1478992,5.6605042 C19.1478992,4.89747899 18.512605,4.2789916 17.7361345,4.2789916 C16.9596639,4.2789916 16.3243697,4.89747899 16.3243697,5.6605042 C16.3243697,6.1512605 16.5932773,6.58487395 16.9932773,6.82689076 L16.9932773,7.87563025 L12.5764706,7.87563025 L12.5764706,4.05042017 C12.5764706,3.83865546 12.5831933,3.06554622 12.5865546,2.75630252 C12.7210084,2.44369748 13.2252101,1.4487395 14.2605042,1.4487395 C15.1815126,1.4487395 15.8201681,1.77142857 16.2,2.41680672 C15.3731092,2.77310924 14.8218487,3.48907563 14.5663866,4.19495798 L14.4890756,4.42016807 C14.3680672,4.80336134 14.589916,5.20672269 14.9798319,5.32436975 C15.3663866,5.44537815 15.7798319,5.23361345 15.9042017,4.84705882 L15.9647059,4.66890756 C16.0789916,4.35294118 16.4621849,3.59663866 17.2857143,3.62352941 L17.2890756,3.62352941 C20.8991597,3.62352941 21.1815417,7.06554622 21.1815417,8.1210084 C21.1815417,8.50756303 21.1277311,9.67394958 20.6134454,10.7193277 C19.9815126,10.3058824 19.2588235,10.0537815 18.5058824,9.97983193 C18.1058824,9.93277311 17.7394958,10.2151261 17.6890756,10.6184874 C17.6453782,11.0184874 17.9378151,11.3747899 18.3344538,11.4184874 L18.3411765,11.4184874 C19.1344538,11.502521 19.7663866,11.7915966 20.2268908,12.2722689 C21.1109244,13.4252101 21.1815417,15.0319328 21.1815417,15.4991597 C21.1848739,16.5478992 20.902521,19.9327731 17.292437,19.989916 M9.41344538,22.1781513 C8.5092437,22.1781513 7.87394958,21.8722689 7.4907563,21.2504202 C7.7092437,21.1663866 7.92773109,21.0621849 8.14621849,20.9243697 C8.4789916,20.7159664 8.57983193,20.2722689 8.37142857,19.9394958 C8.36806723,19.9327731 8.36470588,19.9294118 8.36134454,19.9226891 C8.13277311,19.5865546 7.6789916,19.4957983 7.33613445,19.7142857 C7.03361345,19.9092437 6.76806723,19.9966387 6.51260504,19.9932773 C6.47563025,19.989916 6.44537815,20.0033613 6.41176471,20.0033613 C6.40168067,20.0033613 6.39495798,20 6.38487395,20 C2.77478992,20 2.49243697,16.5579832 2.49243697,15.502521 C2.49243697,15.1226891 2.54621849,13.9966387 3.0302521,12.9647059 C3.07731092,13.7176471 3.60504202,14.2554622 4.24033613,14.497479 C4.25042017,14.5008403 4.36134454,14.5411765 4.37142857,14.5411765 C4.44537815,14.5647059 4.51932773,14.5781513 4.59663866,14.5781513 C4.88907563,14.5781513 5.14453782,14.3798319 5.25546218,14.087395 C5.39327731,13.7176471 5.15462185,13.2907563 4.77815126,13.1462185 C4.68739496,13.1193277 4.61008403,13.0588235 4.55630252,12.9815126 C5.03697479,12.9613445 5.47731092,12.8537815 5.84369748,12.6386555 C6.18319328,12.4403361 6.30084034,12.0033613 6.10252101,11.6638655 L6.09243697,11.6436975 C5.87394958,11.3008403 5.42352941,11.1932773 5.07731092,11.4016807 C4.86554622,11.5260504 4.57647059,11.5731092 4.20672269,11.5428571 C3.85714286,11.512605 3.58823529,11.4184874 3.4,11.2739496 C2.56638655,10.1243697 2.49579832,8.57815126 2.49579832,8.11764706 C2.49579832,7.06554622 2.77815126,3.62016807 6.48235294,3.62016807 C6.73445378,3.6302521 6.95294118,3.66722689 7.14453782,3.77815126 C7.49411765,3.98319328 7.94453782,3.87226891 8.15966387,3.52941176 C8.36470588,3.19327731 8.25714286,2.75294118 7.9210084,2.54453782 C7.91428571,2.54117647 7.91092437,2.53781513 7.90420168,2.53445378 C7.77647059,2.4605042 7.64537815,2.4 7.50756303,2.34621849 C7.89411765,1.74117647 8.52268908,1.43865546 9.41680672,1.43865546 C10.5563025,1.43865546 11,2.60168067 11.1008403,2.91428571 C11.097479,3.17983193 11.0941176,3.87226891 11.1008403,4.04033613 L11.1008403,4.96134454 L9.75630252,4.96134454 C9.49747899,4.5512605 9.04369748,4.30588235 8.55966387,4.30588235 C7.77983193,4.30588235 7.14789916,4.92436975 7.14789916,5.68739496 C7.14789916,6.44705882 7.77983193,7.06554622 8.55966387,7.06554622 C9.04369748,7.06554622 9.49411765,6.82016807 9.75630252,6.41008403 L11.1008403,6.41008403 L11.1008403,7.86218487 L5.99831933,7.86218487 C5.7394958,7.45210084 5.28571429,7.20672269 4.80168067,7.20672269 C4.02184874,7.20672269 3.38655462,7.82521008 3.38655462,8.58823529 C3.38655462,9.34789916 4.01848739,9.96638655 4.80168067,9.96638655 C5.3092437,9.96638655 5.74957983,9.70420168 5.99831933,9.31092437 L11.0941176,9.31092437 L11.0941176,10.5344538 L8.58319328,10.5344538 C8.17983193,10.5310924 7.84705882,10.8537815 7.84033613,11.2571429 L7.84033613,13.4823529 C7.42689076,13.7277311 7.17142857,14.1714286 7.16806723,14.6521008 C7.16806723,15.4117647 7.80336134,16.0302521 8.57983193,16.0302521 C9.35630252,16.0302521 9.99159664,15.4117647 9.99159664,14.6521008 C9.99159664,14.1546218 9.72268908,13.7243697 9.31932773,13.4823529 L9.31932773,11.9798319 L11.0907563,11.9798319 L11.0907563,17.7680672 L5.66890756,17.7680672 L5.66890756,17.5932773 C5.66890756,17.589916 5.66554622,17.5831933 5.66554622,17.5798319 C6.08571429,17.3378151 6.34789916,16.887395 6.3512605,16.4033613 C6.3512605,15.6403361 5.71596639,15.0218487 4.9394958,15.0218487 C4.16302521,15.0218487 3.52773109,15.6403361 3.52773109,16.4033613 C3.52773109,16.897479 3.79663866,17.3277311 4.19663866,17.5697479 C4.19663866,17.5865546 4.18991597,17.5966387 4.18991597,17.6134454 L4.20336134,18.5042017 C4.21344538,18.9042017 4.54285714,19.2201681 4.94285714,19.2168067 L11.1008403,19.2168067 L11.1008403,19.5697479 C11.1008403,19.7815126 11.0941176,20.5546218 11.0907563,20.8638655 C10.9495798,21.1865546 10.4453782,22.1781513 9.41344538,22.1781513 M22.6638655,8.1210084 C22.6638655,5.50588235 21.3831933,2.47394958 17.7428571,2.20504202 C17.1747899,0.779831933 15.9546218,0 14.2605042,0 C13.087395,0 12.307563,0.611764706 11.8201681,1.21344538 C11.3058824,0.561344538 10.5294118,0 9.41344538,0 C7.74957983,0 6.5092437,0.789915966 5.93445378,2.19495798 C2.31092437,2.42352941 1.01008403,5.48571429 1.01008403,8.1210084 C1.01008403,8.79663866 1.11092437,10.4134454 1.97478992,11.8084034 C1.11092437,13.2 1.01008403,14.8235294 1.01008403,15.4991597 C1.01008403,18.1142857 2.2907563,21.1495798 5.93109244,21.4184874 C6.49915966,22.8470588 7.71932773,23.6235294 9.41680672,23.6235294 C10.589916,23.6235294 11.3697479,23.0117647 11.8537815,22.410084 C12.3680672,23.0621849 13.1478992,23.6235294 14.2638655,23.6235294 C15.9546218,23.6235294 17.1714286,22.8504202 17.7428571,21.4285714 C21.3663866,21.1966387 22.6672269,18.1344538 22.6672269,15.502521 C22.6672269,14.8268908 22.5663866,13.210084 21.702521,11.8151261 C22.5630252,10.4235294 22.6638655,8.8 22.6638655,8.1210084" id="(1)AI_Inteligencia-Artificial_2Regular"></path>
        </g>
    </g>
</svg>

<svg width="24" height="24" viewBox="0 0 24 24" xmlns="http://www.w3.org/2000/svg"><path d="M17.292 19.99h-.006c-.239.003-.521-.084-.817-.276a2.482 2.482 0 01-.182-.127.755.755 0 00-1.042.114.71.71 0 00.101 1.002c.007.003.01.01.017.013.084.067.182.134.29.205.184.118.369.208.55.286-.38.645-1.015.968-1.94.968-1.139 0-1.582-1.163-1.68-1.476a41.74 41.74 0 000-1.126v-1.391h1.483c.248.393.689.655 1.196.655.78 0 1.412-.619 1.412-1.382 0-.763-.635-1.381-1.412-1.381-.507 0-.948.265-1.196.655H12.58V9.324h1.049v2.347a1.377 1.377 0 00-.589 1.116c0 .76.636 1.381 1.412 1.381.504 0 .945-.262 1.193-.652l2.696-.007v1.5a1.369 1.369 0 00-.675 1.17c0 .759.631 1.38 1.415 1.38.776 0 1.411-.618 1.411-1.38 0-.492-.268-.922-.668-1.167v-2.229a.715.715 0 00-.216-.51.763.763 0 00-.524-.212l-3.429.006a1.376 1.376 0 00-.544-.494V9.324h2.622a.73.73 0 00.74-.722V6.83c.403-.242.675-.672.675-1.17 0-.763-.635-1.381-1.412-1.381-.776 0-1.412.618-1.412 1.382 0 .49.27.924.67 1.166v1.049h-4.418V4.05c0-.211.007-.984.01-1.294.135-.312.64-1.307 1.675-1.307.92 0 1.56.322 1.939.968-.827.356-1.378 1.072-1.634 1.778l-.077.225a.72.72 0 00.49.904c.387.121.8-.09.925-.477l.06-.178c.115-.316.498-1.072 1.322-1.045h.003c3.61 0 3.893 3.442 3.893 4.497 0 .387-.054 1.553-.569 2.598a4.681 4.681 0 00-2.107-.74.735.735 0 00-.817.64c-.044.4.249.756.645.8h.007c.793.084 1.425.373 1.886.853.884 1.153.955 2.76.955 3.227.003 1.049-.28 4.434-3.89 4.49m-7.879 2.19c-.904 0-1.54-.307-1.922-.929.218-.084.437-.188.655-.326a.717.717 0 00.225-.985l-.01-.016a.75.75 0 00-1.025-.209c-.302.195-.568.283-.823.28-.037-.004-.068.01-.101.01-.01 0-.017-.004-.027-.004-3.61 0-3.893-3.442-3.893-4.497 0-.38.054-1.506.538-2.538.047.753.575 1.29 1.21 1.532.01.004.121.044.131.044a.735.735 0 00.226.037c.292 0 .548-.198.658-.49.138-.37-.1-.797-.477-.942a.419.419 0 01-.222-.164c.481-.02.921-.128 1.288-.343a.714.714 0 00.259-.975l-.01-.02a.748.748 0 00-1.016-.242c-.211.124-.5.171-.87.14-.35-.03-.619-.124-.807-.268-.834-1.15-.904-2.696-.904-3.156 0-1.052.282-4.498 3.986-4.498.252.01.47.047.663.158.35.205.8.094 1.015-.249a.72.72 0 00-.239-.984l-.017-.01a2.854 2.854 0 00-.396-.189c.386-.605 1.015-.907 1.909-.907 1.14 0 1.583 1.163 1.684 1.475a41.74 41.74 0 000 1.126v.921H9.756a1.414 1.414 0 00-1.196-.655c-.78 0-1.412.618-1.412 1.381 0 .76.632 1.379 1.412 1.379.484 0 .934-.246 1.196-.656h1.345v1.452H5.998a1.414 1.414 0 00-1.196-.655c-.78 0-1.415.618-1.415 1.381 0 .76.631 1.378 1.415 1.378a1.41 1.41 0 001.196-.655h5.096v1.223h-2.51a.737.737 0 00-.744.723v2.225c-.413.246-.669.69-.672 1.17 0 .76.635 1.378 1.412 1.378.776 0 1.412-.618 1.412-1.378 0-.497-.27-.928-.673-1.17V11.98h1.772v5.788H5.669v-.175l-.003-.013c.42-.242.682-.693.685-1.177 0-.763-.635-1.381-1.412-1.381-.776 0-1.411.618-1.411 1.381 0 .494.269.925.669 1.167 0 .017-.007.027-.007.043l.013.891c.01.4.34.716.74.713H11.1v.353c0 .212-.007.985-.01 1.294-.141.323-.646 1.314-1.678 1.314m13.25-14.057c0-2.615-1.28-5.647-4.92-5.916C17.175.78 15.955 0 14.26 0c-1.174 0-1.953.612-2.44 1.213C11.305.561 10.528 0 9.412 0 7.75 0 6.51.79 5.934 2.195c-3.623.229-4.924 3.29-4.924 5.926 0 .676.1 2.292.965 3.687C1.11 13.2 1.01 14.824 1.01 15.5c0 2.615 1.28 5.65 4.921 5.92.568 1.428 1.788 2.205 3.486 2.205 1.173 0 1.953-.612 2.437-1.214.514.652 1.294 1.214 2.41 1.214 1.69 0 2.907-.774 3.479-2.195 3.623-.232 4.924-3.295 4.924-5.926 0-.676-.1-2.293-.964-3.688.86-1.391.96-3.015.96-3.694" fill="#5CB615" fill-rule="nonzero"/></svg>
